X:137
T:Mountain Top (reel), The  
B:CRE1.093 (Barr an tSleibhe)
F:file ID: cre.1/137mount_t
S:Sonny Brogan
M:C
L:1/8
Q:180
R:reel
K:G
dc|BGAG EGDE|G2Bd edgd|BGAG EGDd|(3B^cd Ad BGG2|
BGAG EGDE|G2Bd edgd|BGAG EGDd|(3B^cd Ad BGG2||
Bdd2 edgd|(3B^cd ef gfed|Bdd2 edgd|(3B^cd Ad BGG2|
Bdd2 edgd|(3B^cd ef gfga|bgaf gede|gfga gedc||

%%%

